X: 21582
T: Kilkenny Rovers, The
R: jig
M: 6/8
K: Dmajor
A|:AFF Fdc|dde dAA|AFF Fe^d|e^df eAA|
AFF Fdc|ede ffg|abg fge|1 edd d2A:|2 edd d2f/g/||
|:ab^g aa=g|fge def|gaf ggf|ef^d efg|
ab^g aa=g|fge def|gaf ede|1 fdd d2f/g/:|2 fdd d2||

